X:1
T:Three Jolly Rogues of Lynne
M:4/4
L:1/8
K:G
 D2| G2 G2 AA F2| G6 D2| B2 B2 cc A2| B6 GA| BB BB AA AA| GG G2 F2 D2|\
E-F G2 A2 F2| G6 D2| G2 G2A-G F2| G6 D2| B2 B2c-B A2| B6 GA| BB BB AA AA|\
 GG G2 F2 D2|E-F G2 A2 F2| G6||
